X: 12255
T: Fairhaired Boy, The
R: reel
M: 4/4
K: Dmixolydian
A3G FGAB|=cAdc BG G2|A3G FAdg|fde^c Add^c|
A3G FGAB|=cAdc BG G2|A3G FAdg|fde^c Adde||
f2 df efde|f2 df ecAg|f2 df efdg|fde^c Adde|
f2 df efde|f2 df ec A2|ABcd ef g2|afge fd d2||

